public/avatar/emote/75.svg

<svg xmlns:xlink="http://www.w3.org/1999/xlink" height="100.8" width="132.65" xmlns="http://www.w3.org/2000/svg"><use height="30.3" transform="translate(65.9 58.85)" width="25.55" xlink:href="#a"/><defs><g id="a"><path d="M6.3-10.95v15.9m-2.5-16.9v15.9M8.3-14.2V3.7m4.9-14.65V2.7M1.55-9.7V2.2m9.15-14.65v17.9" fill="none" stroke="#666" stroke-linecap="round" stroke-linejoin="round" transform="translate(11.85 14.7)"/><path d="m1.1 3.05-8.55.5-3.85-.2q0-.9 3.45-2.6Q-4.4-.95.4-1 5.1-1 8.45.75q3.3 1.7 3.3 2.65 0 .85-2.95.35l-7.7-.7" fill="#666" fill-rule="evenodd" transform="translate(11.85 14.7)"/><path d="m6.1 2.5-.95.3H5l-.35.05-1-.15-.75-.35Q3.85.9 4.75.95 5.6 1 6.1 2.5m-8.7-.3q-1.2.7-2 .7l-1-.15-.1-.05q.25-1.45 1.4-1.65 1.05-.2 1.7 1.15" fill-rule="evenodd" transform="translate(11.85 14.7)"/><path d="M.9-.35h7.5l-.05.15-.05.1-.85 1.5-.15.2q-.55.6-1.2.9Q5.6 1 4.75.95 3.85.9 2.9 2.35l-.75-.6-.3-.35Q1.2.6.9-.35m-1.75 0q-.3 1-.95 1.8l-.05.05-1.25 1.05.5-.35Q-3.25.85-4.3 1.05q-1.15.2-1.4 1.65-.9-.3-1.65-1.15l-.05-.1L-8.25 0l-.05-.15-.05-.2h7.5" fill="#fff" fill-rule="evenodd" transform="translate(11.85 14.7)"/><path d="M8.4-.35h3.75M.9-.35h7.5m-7.5 0h-12.25m19.75 0-.05.15-.05.1-.85 1.5-.15.2q-.55.6-1.2.9l-.95.3H5l-.35.05-1-.15-.75-.35-.75-.6-.3-.35Q1.2.6.9-.35m-1.75 0q-.3 1-.95 1.8l-.05.05-1.25 1.05.5-.35q-1.2.7-2 .7l-1-.15-.1-.05q-.9-.3-1.65-1.15l-.05-.1L-8.25 0l-.05-.15-.05-.2" fill="none" stroke="#666" stroke-linecap="round" stroke-linejoin="round" transform="translate(11.85 14.7)"/><path d="M7.45 9.5H2.1l-.55.55q-.55.4-1.4.4-.85 0-1.45-.4l-.45-.55H-7.4" fill="none" stroke="#000" stroke-linecap="round" stroke-linejoin="round" transform="translate(11.85 14.7)"/><path d="M.05 11.2v3.9m1.75-3.4q.1 1.35 1.25 1.95M-2.2 11.7q0 .9-.3 1.75" fill="none" stroke="#666" stroke-linecap="round" stroke-linejoin="round" transform="translate(11.85 14.7)"/></g></defs></svg>

<?xml version="1.0" encoding="UTF-8" standalone="no"?>
<svg xmlns:xlink="http://www.w3.org/1999/xlink" height="100.8px" width="132.65px" xmlns="http://www.w3.org/2000/svg">
  <g transform="matrix(1.0, 0.0, 0.0, 1.0, 77.75, 73.55)">
    <use height="30.3" transform="matrix(1.0, 0.0, 0.0, 1.0, -11.85, -14.7)" width="25.55" xlink:href="#shape0"/>
  </g>
  <defs>
    <g id="shape0" transform="matrix(1.0, 0.0, 0.0, 1.0, 11.85, 14.7)">
      <path d="M6.3 -10.95 L6.3 4.95 M3.8 -11.95 L3.8 3.95 M8.3 -14.2 L8.3 3.7 M13.2 -10.95 L13.2 2.7" fill="none" stroke="#666666" stroke-linecap="round" stroke-linejoin="round" stroke-width="1.0"/>
      <path d="M1.55 -9.7 L1.55 2.2 M10.7 -12.45 L10.7 5.45" fill="none" stroke="#666666" stroke-linecap="round" stroke-linejoin="round" stroke-width="1.0"/>
      <path d="M1.1 3.05 L-7.45 3.55 -11.3 3.35 Q-11.3 2.45 -7.85 0.75 -4.4 -0.95 0.4 -1.0 5.1 -1.0 8.45 0.75 11.75 2.45 11.75 3.4 11.75 4.25 8.8 3.75 L1.1 3.05" fill="#666666" fill-rule="evenodd" stroke="none"/>
      <path d="M6.1 2.5 L5.15 2.8 5.0 2.8 4.65 2.85 3.65 2.7 2.9 2.35 Q3.85 0.9 4.75 0.95 5.6 1.0 6.1 2.5 M-2.6 2.2 Q-3.8 2.9 -4.6 2.9 L-5.6 2.75 -5.7 2.7 Q-5.45 1.25 -4.3 1.05 -3.25 0.85 -2.6 2.2" fill="#000000" fill-rule="evenodd" stroke="none"/>
      <path d="M0.9 -0.35 L8.4 -0.35 8.35 -0.2 8.3 -0.1 7.45 1.4 7.3 1.6 Q6.75 2.2 6.1 2.5 5.6 1.0 4.75 0.95 3.85 0.9 2.9 2.35 L2.15 1.75 1.85 1.4 Q1.2 0.6 0.9 -0.35 M-0.85 -0.35 Q-1.15 0.65 -1.8 1.45 L-1.85 1.5 -3.1 2.55 -2.6 2.2 Q-3.25 0.85 -4.3 1.05 -5.45 1.25 -5.7 2.7 -6.6 2.4 -7.35 1.55 L-7.4 1.45 -8.25 0.0 -8.3 -0.15 -8.35 -0.35 -0.85 -0.35" fill="#ffffff" fill-rule="evenodd" stroke="none"/>
      <path d="M8.4 -0.35 L12.15 -0.35 M0.9 -0.35 L8.4 -0.35 M0.9 -0.35 L-0.85 -0.35 -8.35 -0.35 -11.35 -0.35" fill="none" stroke="#666666" stroke-linecap="round" stroke-linejoin="round" stroke-width="1.0"/>
      <path d="M8.4 -0.35 L8.35 -0.2 8.3 -0.1 7.45 1.4 7.3 1.6 Q6.75 2.2 6.1 2.5 L5.15 2.8 5.0 2.8 4.65 2.85 3.65 2.7 2.9 2.35 2.15 1.75 1.85 1.4 Q1.2 0.6 0.9 -0.35 M-0.85 -0.35 Q-1.15 0.65 -1.8 1.45 L-1.85 1.5 -3.1 2.55 -2.6 2.2 Q-3.8 2.9 -4.6 2.9 L-5.6 2.75 -5.7 2.7 Q-6.6 2.4 -7.35 1.55 L-7.4 1.45 -8.25 0.0 -8.3 -0.15 -8.35 -0.35" fill="none" stroke="#666666" stroke-linecap="round" stroke-linejoin="round" stroke-width="1.0"/>
      <path d="M7.45 9.5 L2.1 9.5 1.55 10.05 Q1.0 10.45 0.15 10.45 -0.7 10.45 -1.3 10.05 L-1.75 9.5 -7.4 9.5" fill="none" stroke="#000000" stroke-linecap="round" stroke-linejoin="round" stroke-width="1.0"/>
      <path d="M0.05 11.2 L0.05 15.1 M1.8 11.7 Q1.9 13.05 3.05 13.65 M-2.2 11.7 Q-2.2 12.6 -2.5 13.45" fill="none" stroke="#666666" stroke-linecap="round" stroke-linejoin="round" stroke-width="1.0"/>
    </g>
  </defs>
</svg>
